assets/images/payments/ripple.svg

<svg width="100" height="60" viewBox="0 0 100 60" version="1.1" xmlns="http://www.w3.org/2000/svg" xmlns:xlink="http://www.w3.org/1999/xlink"><title>Ripple-light</title><desc>Created with Sketch.</desc><defs><radialGradient cx="62.682%" cy="42.748%" fx="62.682%" fy="42.748%" r="52.47%" gradientTransform="translate(0.626824,0.427475),scale(1.000000,0.917520),translate(-0.626824,-0.427475)" id="radialGradient-1"><stop stop-color="#4492B7" offset="0%"/><stop stop-color="#366CAA" offset="100%"/></radialGradient></defs><g id="Light-Payment-badges" stroke="none" stroke-width="1" fill="none" fill-rule="evenodd" transform="translate(-450.000000, -789.000000)"><g id="Ripple-light" transform="translate(450.000000, 789.000000)"><rect id="Rectangle-70" fill="#FFF" x="0" y="0" width="100" height="60" rx="4"/><path d="M35.6338028,35.0508475 L35.6338028,25.1864407 L38.5070423,25.1864407 L38.5070423,26.0677966 C38.7098592,25.8305085 38.9464789,25.6271186 39.2169014,25.4576271 C39.7239437,25.1186441 40.3323944,24.9830508 41.0084507,24.9830508 C41.1774648,24.9830508 41.3126761,24.9830508 41.4816901,25.0169492 C41.6169014,25.0508475 41.7859155,25.0847458 41.9211268,25.1186441 L42.1239437,25.1864407 L42.1239437,28 L41.7859155,27.8983051 C41.6169014,27.8644068 41.4140845,27.7966102 41.2450704,27.7627119 C41.0760563,27.7288136 40.9070423,27.7288136 40.7380282,27.7288136 C40.2647887,27.7288136 39.8591549,27.8305085 39.5887324,28 C39.284507,28.1694915 39.0816901,28.3728814 38.9126761,28.6101695 C38.743662,28.8474576 38.6422535,29.0847458 38.6084507,29.2881356 C38.5408451,29.5932203 38.5408451,29.7288136 38.5408451,29.7966102 L38.5408451,35.0508475 L35.6338028,35.0508475 L35.6338028,35.0508475 Z" id="Shape" fill="#111"/><polygon id="Shape" fill="#111" points="43.4760563 35.0508475 43.4760563 25.1864407 46.3492958 25.1864407 46.3492958 35.0508475 43.4760563 35.0508475"/><path d="M43.4084507,22.3050847 C43.4084507,21.9322034 43.543662,21.5932203 43.8140845,21.3220339 C44.084507,21.0508475 44.456338,20.9152542 44.8619718,20.9152542 C45.3014085,20.9152542 45.6394366,21.0508475 45.943662,21.3220339 C46.2478873,21.5932203 46.3830986,21.9322034 46.3830986,22.3389831 C46.3830986,22.7457627 46.2478873,23.0847458 45.943662,23.3220339 C45.6394366,23.5932203 45.3014085,23.7288136 44.8619718,23.7288136 C44.4225352,23.7288136 44.084507,23.5932203 43.8140845,23.3220339 C43.543662,23.0169492 43.4084507,22.6779661 43.4084507,22.3050847 L43.4084507,22.3050847 Z" id="Shape" fill="#111"/><path d="M48.1746479,39.4915254 L48.1746479,25.1864407 L50.9464789,25.1864407 L50.9464789,26.0677966 C51.2169014,25.7627119 51.5549296,25.5254237 51.9605634,25.3559322 C52.5690141,25.0847458 53.2112676,24.9491525 53.9211268,24.9491525 C54.6647887,24.9491525 55.3408451,25.0847458 55.9492958,25.3559322 C56.5577465,25.6271186 57.0647887,26 57.5042254,26.4745763 C57.943662,26.9491525 58.2478873,27.4915254 58.484507,28.1355932 C58.6873239,28.7457627 58.8225352,29.4237288 58.8225352,30.1355932 C58.8225352,30.8474576 58.7211268,31.5254237 58.484507,32.1694915 C58.2478873,32.779661 57.9098592,33.3559322 57.5042254,33.7966102 C57.0985915,34.2711864 56.5915493,34.6440678 55.9830986,34.9152542 C55.4084507,35.1864407 54.7323944,35.3220339 54.056338,35.3220339 C53.5830986,35.3220339 53.1774648,35.2881356 52.8394366,35.1864407 C52.4676056,35.0847458 52.1633803,34.9491525 51.8929577,34.8135593 C51.6225352,34.6779661 51.3859155,34.5084746 51.1830986,34.3050847 L51.1492958,34.2711864 L51.1492958,39.5254237 L48.1746479,39.5254237 L48.1746479,39.4915254 Z M53.4140845,27.5932203 C53.0422535,27.5932203 52.6704225,27.6610169 52.4,27.7966102 C52.0957746,27.9322034 51.8253521,28.1355932 51.6225352,28.3389831 C51.4197183,28.5762712 51.2507042,28.8474576 51.1492958,29.1525424 C51.0478873,29.4576271 50.9802817,29.7627119 50.9802817,30.1016949 C50.9802817,30.440678 51.0478873,30.7457627 51.1492958,31.0508475 C51.2507042,31.3559322 51.4197183,31.6271186 51.6225352,31.8644068 C51.8253521,32.1016949 52.0957746,32.2711864 52.4,32.4067797 C52.7042254,32.5423729 53.0422535,32.6101695 53.4140845,32.6101695 C53.7859155,32.6101695 54.1577465,32.5423729 54.428169,32.4067797 C54.7323944,32.2711864 55.0028169,32.0677966 55.2056338,31.8644068 C55.4084507,31.6271186 55.5774648,31.3559322 55.6788732,31.0508475 C55.7802817,30.7457627 55.8478873,30.440678 55.8478873,30.1016949 C55.8478873,29.7627119 55.7802817,29.4576271 55.6788732,29.1525424 C55.5774648,28.8474576 55.4084507,28.5762712 55.2056338,28.3389831 C55.0028169,28.1016949 54.7323944,27.9322034 54.428169,27.7966102 C54.1577465,27.6610169 53.8197183,27.5932203 53.4140845,27.5932203 L53.4140845,27.5932203 Z" id="Shape" fill="#111"/><path d="M59.9042254,39.4915254 L59.9042254,25.1864407 L62.6760563,25.1864407 L62.6760563,26.0677966 C62.9464789,25.7627119 63.284507,25.5254237 63.6901408,25.3559322 C64.2985915,25.0847458 64.9408451,24.9491525 65.6507042,24.9491525 C66.3943662,24.9491525 67.0704225,25.0847458 67.6788732,25.3559322 C68.2873239,25.6271186 68.7943662,26 69.2338028,26.4745763 C69.6732394,26.9491525 69.9774648,27.4915254 70.2140845,28.1355932 C70.4169014,28.7457627 70.5521127,29.4237288 70.5521127,30.1355932 C70.5521127,30.8474576 70.4507042,31.5254237 70.2140845,32.1694915 C69.9774648,32.779661 69.6394366,33.3559322 69.2338028,33.7966102 C68.828169,34.2711864 68.3211268,34.6440678 67.7126761,34.9152542 C67.1380282,35.1864407 66.4619718,35.3220339 65.7859155,35.3220339 C65.3126761,35.3220339 64.9070423,35.2881356 64.5690141,35.1864407 C64.1971831,35.0847458 63.8929577,34.9491525 63.6225352,34.8135593 C63.3521127,34.6779661 63.115493,34.5084746 62.9126761,34.3050847 L62.8788732,34.2711864 L62.8788732,39.5254237 L59.9042254,39.5254237 L59.9042254,39.4915254 Z M65.1774648,27.5932203 C64.8056338,27.5932203 64.4338028,27.6610169 64.1633803,27.7966102 C63.8591549,27.9322034 63.5887324,28.1355932 63.3859155,28.3389831 C63.1830986,28.5762712 63.0140845,28.8474576 62.9126761,29.1525424 C62.8112676,29.4576271 62.743662,29.7627119 62.743662,30.1016949 C62.743662,30.440678 62.8112676,30.7457627 62.9126761,31.0508475 C63.0140845,31.3559322 63.1830986,31.6271186 63.3859155,31.8644068 C63.5887324,32.1016949 63.8591549,32.2711864 64.1633803,32.4067797 C64.4676056,32.5423729 64.8056338,32.6101695 65.1774648,32.6101695 C65.5492958,32.6101695 65.9211268,32.5423729 66.1915493,32.4067797 C66.4957746,32.2711864 66.7661972,32.0677966 66.9690141,31.8644068 C67.171831,31.6271186 67.3408451,31.3559322 67.4422535,31.0508475 C67.543662,30.7457627 67.6112676,30.440678 67.6112676,30.1016949 C67.6112676,29.7627119 67.543662,29.4576271 67.4422535,29.1525424 C67.3408451,28.8474576 67.171831,28.5762712 66.9690141,28.3389831 C66.7661972,28.1016949 66.4957746,27.9322034 66.1915493,27.7966102 C65.8873239,27.6610169 65.5492958,27.5932203 65.1774648,27.5932203 L65.1774648,27.5932203 Z" id="Shape" fill="#111"/><rect id="Rectangle-path" fill="#111" x="71.701" y="20" width="2.873" height="15.22"/><path d="M81.0647887,35.2881356 C80.3211268,35.2881356 79.6450704,35.1525424 79.0028169,34.9152542 C78.3605634,34.6779661 77.7859155,34.3050847 77.3126761,33.8644068 C76.8394366,33.4237288 76.4676056,32.8474576 76.1633803,32.2372881 C75.8929577,31.5932203 75.7577465,30.8813559 75.7577465,30.1016949 C75.7577465,29.3220339 75.8929577,28.6101695 76.1633803,27.9661017 C76.4338028,27.3220339 76.8394366,26.779661 77.3126761,26.3389831 C77.7859155,25.8983051 78.3605634,25.5254237 79.0028169,25.2881356 C79.6450704,25.0508475 80.3549296,24.9152542 81.0647887,24.9152542 C81.7408451,24.9152542 82.3830986,25.0508475 82.9577465,25.2881356 C83.5323944,25.5254237 84.0394366,25.8983051 84.4450704,26.3389831 C84.8507042,26.779661 85.1549296,27.3559322 85.3915493,28 C85.628169,28.6440678 85.7295775,29.4237288 85.7295775,30.2711864 L85.7295775,31.1864407 L78.6985915,31.1864407 C78.8,31.6610169 79.0366197,32.0338983 79.3746479,32.3389831 C79.7802817,32.6779661 80.2873239,32.8474576 80.8957746,32.8474576 C81.4366197,32.8474576 81.8760563,32.7457627 82.2140845,32.5423729 C82.5859155,32.3050847 82.8901408,32.0338983 83.1943662,31.6949153 L83.3633803,31.4915254 L85.4591549,33.0847458 L85.2901408,33.3220339 C84.715493,34.0338983 84.0732394,34.5423729 83.3633803,34.8474576 C82.5521127,35.1525424 81.8084507,35.2881356 81.0647887,35.2881356 L81.0647887,35.2881356 Z M82.7887324,28.9152542 C82.7211268,28.440678 82.5521127,28.0677966 82.2478873,27.7627119 C81.8760563,27.4237288 81.3690141,27.2542373 80.7267606,27.2542373 C80.084507,27.2542373 79.6112676,27.4237288 79.2732394,27.7627119 C78.9690141,28.0677966 78.7661972,28.440678 78.6647887,28.9152542 L82.7887324,28.9152542 L82.7887324,28.9152542 Z" id="Shape" fill="#111"/><path d="M24.4450704,37.6610169 C25.4929577,39.6610169 27.9605634,40.440678 29.9549296,39.3898305 C31.9492958,38.3389831 32.7267606,35.8644068 31.6788732,33.8644068 C30.9352113,32.4745763 29.515493,31.6610169 28.028169,31.6610169 L28.028169,31.6610169 C27.6225352,31.6610169 27.1830986,31.559322 26.8450704,31.2542373 C26.2028169,30.7457627 26.0338028,29.8305085 26.4732394,29.1525424 C26.8112676,28.6101695 27.4873239,28.4067797 28.0619718,28.440678 C29.4140845,28.440678 30.7323944,27.7627119 31.5098592,26.5423729 C32.7267606,24.6440678 32.1521127,22.1016949 30.2591549,20.8813559 C28.3661972,19.6949153 25.8309859,20.2372881 24.6140845,22.1694915 C23.7690141,23.4915254 23.8028169,25.1525424 24.5464789,26.440678 L24.5464789,26.440678 C24.6140845,26.5423729 24.6478873,26.6440678 24.715493,26.7457627 L24.715493,26.7457627 L24.715493,26.7457627 C24.8169014,26.9491525 24.8507042,27.220339 24.8507042,27.4576271 C24.8169014,28.3389831 24.0732394,29.0169492 23.1943662,28.9830508 C22.5521127,28.9491525 22.0112676,28.5423729 21.7746479,28 L21.7746479,28 L21.7746479,27.9661017 C21.0985915,26.8135593 19.8478873,26 18.428169,25.9322034 C16.1633803,25.8305085 14.2704225,27.559322 14.1690141,29.8305085 C14.0676056,32.1016949 15.8253521,34 18.056338,34.1016949 C19.6450704,34.1694915 21.0309859,33.3220339 21.7746479,32.0338983 L21.7746479,32.0338983 C22.0450704,31.4576271 22.6197183,31.0847458 23.2957746,31.1186441 C23.3971831,31.1186441 23.4985915,31.1186441 23.5661972,31.1525424 C24.0394366,31.2542373 24.4450704,31.5254237 24.6816901,31.9661017 C24.9859155,32.5423729 24.8507042,33.1864407 24.5126761,33.6949153 C23.8366197,34.8813559 23.7690141,36.3728814 24.4450704,37.6610169 L24.4450704,37.6610169 Z" id="Shape" fill="url(#radialGradient-1)"/></g></g></svg>

<svg width="100" height="60" xmlns="http://www.w3.org/2000/svg"><defs><radialGradient cx="62.682%" cy="42.748%" fx="62.682%" fy="42.748%" r="52.47%" gradientTransform="matrix(1 0 0 .91752 0 .035)" id="a"><stop stop-color="#4492B7" offset="0%"/><stop stop-color="#366CAA" offset="100%"/></radialGradient></defs><g fill="none" fill-rule="evenodd"><rect fill="#FFF" width="100" height="60" rx="4"/><path d="M35.634 35.05v-9.864h2.873v.882c.203-.237.44-.44.71-.61.507-.34 1.115-.475 1.791-.475.17 0 .305 0 .474.034.135.034.304.068.44.102l.202.067V28l-.338-.102c-.17-.034-.372-.101-.54-.135-.17-.034-.339-.034-.508-.034-.473 0-.879.102-1.15.271a2 2 0 00-.675.61 1.69 1.69 0 00-.305.678c-.067.305-.067.44-.067.509v5.254h-2.907zm7.842 0v-9.864h2.873v9.865h-2.873zm-.068-12.745c0-.373.136-.712.406-.983s.642-.407 1.048-.407c.44 0 .777.136 1.082.407.304.271.44.61.44 1.017 0 .407-.136.746-.44.983a1.533 1.533 0 01-1.082.407c-.44 0-.777-.136-1.048-.407-.27-.305-.406-.644-.406-1.017zm4.767 17.187V25.186h2.771v.882a2.74 2.74 0 011.015-.712 4.723 4.723 0 011.96-.407c.744 0 1.42.136 2.028.407a4.685 4.685 0 011.555 1.119c.44.474.744 1.017.98 1.66.203.61.339 1.289.339 2a5.84 5.84 0 01-.338 2.034c-.237.61-.575 1.187-.98 1.628a4.236 4.236 0 01-1.522 1.118 4.57 4.57 0 01-1.927.407c-.473 0-.879-.034-1.217-.136a5.015 5.015 0 01-.946-.372 2.707 2.707 0 01-.71-.509l-.034-.034v5.254h-2.974v-.033zm5.24-11.899c-.373 0-.745.068-1.015.204a2.654 2.654 0 00-.777.542 2.448 2.448 0 00-.474.814c-.101.305-.169.61-.169.949 0 .339.068.644.17.949.1.305.27.576.473.813.202.238.473.407.777.543.304.135.642.203 1.014.203s.744-.068 1.014-.203a2.68 2.68 0 00.778-.543c.202-.237.371-.508.473-.813a2.96 2.96 0 00.169-.95 2.93 2.93 0 00-.17-.948 2.448 2.448 0 00-.472-.814c-.203-.237-.474-.407-.778-.542-.27-.136-.608-.204-1.014-.204zm6.489 11.899V25.186h2.772v.882c.27-.305.609-.543 1.014-.712a4.723 4.723 0 011.96-.407c.744 0 1.42.136 2.029.407a4.685 4.685 0 011.555 1.119c.44.474.743 1.017.98 1.66.203.61.338 1.289.338 2a5.84 5.84 0 01-.338 2.034c-.237.61-.575 1.187-.98 1.628a4.236 4.236 0 01-1.521 1.118 4.573 4.573 0 01-1.927.407c-.473 0-.879-.034-1.217-.136a5.015 5.015 0 01-.946-.372 2.707 2.707 0 01-.71-.509l-.034-.034v5.254h-2.975v-.033zm5.273-11.899c-.371 0-.743.068-1.014.204a2.654 2.654 0 00-.777.542 2.448 2.448 0 00-.473.814c-.102.305-.17.61-.17.949 0 .339.068.644.17.949.101.305.27.576.473.813.203.238.473.407.777.543.305.135.643.203 1.014.203.372 0 .744-.068 1.015-.203.304-.136.574-.34.777-.543.203-.237.372-.508.473-.813.102-.305.17-.61.17-.95a2.93 2.93 0 00-.17-.948 2.448 2.448 0 00-.473-.814c-.203-.237-.473-.407-.777-.542a2.464 2.464 0 00-1.015-.204zM71.701 20h2.873v15.22h-2.873zm9.364 15.288c-.744 0-1.42-.135-2.062-.373a5.088 5.088 0 01-1.69-1.05c-.474-.441-.845-1.018-1.15-1.628-.27-.644-.405-1.356-.405-2.135 0-.78.135-1.492.405-2.136a4.726 4.726 0 011.15-1.627 5.088 5.088 0 011.69-1.05 6.007 6.007 0 012.062-.374 4.96 4.96 0 011.893.373c.574.237 1.081.61 1.487 1.051.406.44.71 1.017.947 1.661.236.644.338 1.424.338 2.271v.915h-7.031c.101.475.338.848.676 1.153.405.339.912.508 1.52.508.542 0 .981-.101 1.32-.305.37-.237.675-.508.98-.847l.168-.203 2.096 1.593-.169.237c-.575.712-1.217 1.22-1.927 1.525-.81.306-1.555.441-2.298.441zm1.724-6.373c-.068-.474-.237-.847-.541-1.152-.372-.34-.879-.509-1.521-.509-.642 0-1.116.17-1.454.509a2.237 2.237 0 00-.608 1.152h4.124z" fill="#111"/><path d="M24.445 37.661c1.048 2 3.516 2.78 5.51 1.729a4.102 4.102 0 001.724-5.526 4.145 4.145 0 00-3.65-2.203c-.406 0-.846-.102-1.184-.407-.642-.508-.811-1.423-.372-2.101.338-.543 1.014-.746 1.589-.712 1.352 0 2.67-.678 3.448-1.899 1.217-1.898.642-4.44-1.25-5.66a4.1 4.1 0 00-5.646 1.287c-.845 1.323-.811 2.984-.068 4.272.068.101.102.203.17.305.1.203.135.474.135.712a1.59 1.59 0 01-1.657 1.525 1.653 1.653 0 01-1.42-.983v-.034a4.138 4.138 0 00-3.346-2.034 4.063 4.063 0 00-4.259 3.899 4.088 4.088 0 003.887 4.27c1.59.068 2.975-.779 3.719-2.067a1.57 1.57 0 011.52-.915c.102 0 .204 0 .271.034.473.101.88.372 1.116.813.304.576.169 1.22-.17 1.729a4.128 4.128 0 00-.067 3.966z" fill="url(#a)"/></g></svg>
